icons/1_Primary/Namecheap.svg

<svg width="1024" height="1024" fill="none" xmlns="http://www.w3.org/2000/svg"><g clip-path="url(#a)"><path d="M512 1024c282.77 0 512-229.23 512-512S794.77 0 512 0 0 229.23 0 512s229.23 512 512 512Z" fill="#FF837D"/><path d="M632.48 636.77a51.928 51.928 0 0 0 22.41 21.18 52.612 52.612 0 0 1-22.52 5.28h-69.8a51.404 51.404 0 0 1-44.52-26L391.57 387.14a51.64 51.64 0 0 0-22.16-21 50.932 50.932 0 0 1 22.68-5.28h69.39a51.488 51.488 0 0 1 44.57 26l126.43 249.91ZM420.25 468.6l-38.61-75.91c-4.75-8.92-13.24-14.95-22.39-18.86-4.64 3.75-8.89 8-11.88 13.22-4.17 7.95-99.88 196.73-103.93 204.45a51.066 51.066 0 0 0-1.604 38.192A51.067 51.067 0 0 0 334.81 637l85.44-168.4Zm360.48-36.24a51.065 51.065 0 0 0 .712-39.082 51.071 51.071 0 0 0-27.132-28.138 50.989 50.989 0 0 0-20.31-4.28l-.07-.25a51.122 51.122 0 0 0-44.7 26.32L604 555.6l38.42 75.6c4.85 9.08 13.42 15.11 22.7 19.09 5.73-4.55 10.76-10.1 13.76-16.88l101.85-201.05Z" fill="#fff"/></g><defs><clipPath id="a"><path fill="#fff" d="M0 0h1024v1024H0z"/></clipPath></defs></svg>

<svg width="1024" height="1024" viewBox="0 0 1024 1024" fill="none" xmlns="http://www.w3.org/2000/svg">
<g clip-path="url(#clip0_2_2868)">
<path d="M512 1024C794.77 1024 1024 794.77 1024 512C1024 229.23 794.77 0 512 0C229.23 0 0 229.23 0 512C0 794.77 229.23 1024 512 1024Z" fill="#FF837D"/>
<path d="M632.48 636.77C637.633 645.936 645.448 653.322 654.89 657.95C647.868 661.359 640.176 663.162 632.37 663.23H562.57C553.517 663.2 544.633 660.78 536.815 656.214C528.998 651.649 522.525 645.1 518.05 637.23L391.57 387.14C386.469 378.067 378.745 370.747 369.41 366.14C376.461 362.652 384.224 360.845 392.09 360.86H461.48C470.54 360.889 479.432 363.308 487.258 367.873C495.084 372.438 501.566 378.988 506.05 386.86L632.48 636.77ZM420.25 468.6L381.64 392.69C376.89 383.77 368.4 377.74 359.25 373.83C354.61 377.58 350.36 381.83 347.37 387.05C343.2 395 247.49 583.78 243.44 591.5C237.981 603.543 237.406 617.234 241.836 629.692C246.265 642.151 255.354 652.405 267.19 658.299C279.026 664.194 292.686 665.267 305.298 661.295C317.91 657.322 328.489 648.613 334.81 637L420.25 468.6ZM780.73 432.36C783.409 426.212 784.851 419.596 784.973 412.89C785.096 406.184 783.896 399.52 781.442 393.278C778.989 387.036 775.33 381.338 770.675 376.51C766.02 371.683 760.459 367.819 754.31 365.14C747.905 362.336 740.992 360.879 734 360.86L733.93 360.61C724.809 360.611 715.854 363.052 707.995 367.68C700.135 372.308 693.656 378.955 689.23 386.93L604 555.6L642.42 631.2C647.27 640.28 655.84 646.31 665.12 650.29C670.85 645.74 675.88 640.19 678.88 633.41L780.73 432.36Z" fill="white"/>
</g>
<defs>
<clipPath id="clip0_2_2868">
<rect width="1024" height="1024" fill="white"/>
</clipPath>
</defs>
</svg>
